X:2
T:Nun Munckton's Hunt. VWMLa.002
%%VWML:Anon2-3049-p2-0
F:http://www.vwml.org/record/Anon2/3049/p2
S:Anon. MS, late 18thC, Vaughan Williams Mem. Library
O:England;Yorkshire
Z:vmp/efdss.Simon Wilson. Reviewed PJH 2008.
M:C|
L:1/8
Q:1/2=85
K:D
A,|:B,DDB, A,DDF|{G}F2ED CEEA|\
B2Bd AFGB|AGFE DD/D/ D:|
|:g|f2df gbed|cegf ee/e/ ef|\
gbBd ceFA|GBAF DD/D/ D:|
T:Sport of Fancy. VWMLa.003
R:reel
S:Anon. MS, late 18thC, Vaughan Williams Mem. Library
N:Rest added, end of bar 4.
O:England;Yorkshire
Z:vmp/efdss.Simon Wilson. Reviewed PJH 2008.
M:C|
L:1/8
Q:2/4=90
K:A
aecA aecA|!turn!BABc BGFE|\
aecA aecA|!turn!BABcA3z:|
|:F2FA E2Bc|dcBA AGFE|\
F2FA E2Bc|dcBc A4:|
